X:1
T:Title
%%score 1 { 2 | 3 }
L:1/8
Q:1/4=105
M:4/4
K:G
V:1 treble nm="Grand Piano, Soprano"
V:2 treble nm="Choir Pad, What a Precious Savior"
V:3 bass 
V:1
 D2 [DG]2 [GB]>[Gc] [GB][DA] | [DG]2 [GB]2 [Ge]2 [Gd]2 | [Fd]2 [FA][GB] [Ac]2 [GB][FA] | %3
w: By~Henry~Lake~Gilmour * * * * *|||
 [EG]2 [GB]2 [FA]4 | D2 [DG]2 [GB]>[Gc] [GB][DA] | [DG]2 [GB]2 [Ge]2 [Gd]2 | %6
w: |||
 [G^c]2 [Gc]2 [Gd]2 [EG][E=c] | [DB]2 [DA]2 [DG]4 | [Gd]2 [Fd][Fd] [Gd]2 [Fc]2 | %9
w: |||
 [GB]2 [GB][GB] [GB]2 [DG]2 | [DF]2 [FA]2 [FA]4 | [DG]2 [GB]2 [GB]2 [EG][FA] | %12
w: |||
 [GB]2 [GB][GB] [Gc][GB][DA][DG] | [Gc][Gc][Gd][Gd] [Ge]4 | %14
w: ||
 (3[G^c][Gc][Gc] [Gc][Gc] [Gd][Gd][EG][E=c] | [DB]2 [DA]2 [DG]4- | [DG]4 z4 |] %17
w: |||
V:2
 B,2 B,2 D>E DC | B,2 D2 C2 B,2 | A,2 DD D2 DC | B,2 ^C2 D4 | B,2 B,2 D>E DC | %5
 B,2 D2 C2[K:bass] B,2 | _B,2 B,2 =B,2 B,A, | G,2 C2 B,4 | B,2[K:treble] CC D2 D2 | %9
 D2 DD D2[K:bass] B,2 | A,2 C2 D4 | B,2[K:treble] D2 D2 B,C | D2 DD ECCB, | CC[K:bass]B,B, C4 | %14
 (3_B,B,B, B,B, =B,B,B,A, | G,2 C2 B,4- | B,4 z4 |] %17
V:3
 G,2 G,2 G,>G, G,G, | G,2 G,2 G,2 G,2 | D,2 D,D, D,2 D,D, | E,2 E,2 D,4 | G,2 G,2 G,>G, G,G, | %5
 G,2 G,2 G,2 G,2 | ^D,2 D,2 =D,2 E,_B,, | D,2 D,2 G,4 | G,2 A,A, B,2 A,2 | G,2 G,G, G,2 G,2 | %10
 D,2 D,2 D,4 | G,2 G,2 G,2 E,D, | G,2 G,G, G,G,G,G, | E,E,D,D, D,4 | (3^D,D,D, D,D, =D,D,E,_B,, | %15
 D,2 D,2 G,,4- | G,,4 z4 |] %17

